X:49
T:Reel of Mullinavat
S:Bernie Waugh
R:Reel
M:4/4
L:1/8
K:E minor
|:\
"Em"g2fg ed~BA|GBAG ~EDB,A,|"C"B,~E2D E/F/GAB|"Bm"F~B2A B/c/def|
"Em"g2fg ed~BA|GBAG ~EDB,D|"C7"G~E2D EFGA|"B7"Bgfg "Em"e3f:|
|:\
"Em"geBe gabg|"D"afde fgaf|"Em"geBe "G"gabg|"A"afdf e3f|
"Em"geBe gabg|"D"afde fgaf|"C7"bgaf gfed|"B7"Bgfg "Em"e3f|
"Em"geBe gece|"D"afdf afdf|"Em"geBe gece|"D"afdf "A"e3f|
"Em"geBe gece|"D"afdf afdf|"C7"bgaf gfed|"B7"Bgfg "Em"e3f|]

